src/assets/svg/car-brands/volkswagen.svg

<svg width="64" height="56" viewBox="0 0 64 56" fill="currentColor" xmlns="http://www.w3.org/2000/svg">
<g clip-path="url(#clip0_601_50307)">
<path d="M32.0192 42.434C24.0914 42.434 17.5963 35.9071 17.5963 27.9793C17.5963 26.1963 17.9147 24.5088 18.5196 22.9169L26.9569 39.8869C27.0524 40.1098 27.2116 40.3008 27.4663 40.3008C27.721 40.3008 27.8802 40.1098 27.9757 39.8869L31.86 31.195C31.8919 31.0995 31.9555 31.0039 32.051 31.0039C32.1466 31.0039 32.1784 31.0995 32.2421 31.195L36.1264 39.8869C36.2219 40.1098 36.3811 40.3008 36.6358 40.3008C36.8905 40.3008 37.0497 40.1098 37.1452 39.8869L45.5825 22.9169C46.1874 24.5088 46.5058 26.1963 46.5058 27.9793C46.4421 35.9071 39.947 42.434 32.0192 42.434ZM32.0192 24.6999C31.9237 24.6999 31.8919 24.6044 31.8282 24.5088L27.3071 14.3205C28.7717 13.7792 30.3636 13.4926 32.0192 13.4926C33.6748 13.4926 35.2668 13.7792 36.7313 14.3205L32.2102 24.5088C32.1466 24.6362 32.1147 24.6999 32.0192 24.6999ZM27.4026 35.1748C27.3071 35.1748 27.2752 35.0793 27.2116 34.9838L19.8887 20.2106C21.194 18.2048 22.9452 16.5173 25.0784 15.3393L30.3636 27.0878C30.4273 27.2788 30.5865 27.3425 30.7457 27.3425H33.2928C33.4838 27.3425 33.6111 27.3106 33.7067 27.0878L38.9919 15.3393C41.0932 16.5173 42.8762 18.2048 44.1816 20.2106L36.795 34.9838C36.7632 35.0793 36.6995 35.1748 36.604 35.1748C36.5085 35.1748 36.4766 35.0793 36.413 34.9838L33.643 28.6797C33.5475 28.4568 33.4201 28.425 33.2291 28.425H30.682C30.491 28.425 30.3636 28.4568 30.2681 28.6797L27.5936 34.9838C27.5618 35.0793 27.4981 35.1748 27.4026 35.1748ZM32.0192 43.8986C40.8385 43.8986 47.9386 36.7986 47.9386 27.9793C47.9386 19.1599 40.8385 12.0599 32.0192 12.0599C23.1999 12.0599 16.0999 19.1599 16.0999 27.9793C16.0999 36.7986 23.1999 43.8986 32.0192 43.8986Z" fill="currentColor"/>
</g>
<defs>
<clipPath id="clip0_601_50307">
<rect width="32" height="32" fill="white" transform="translate(16 12)"/>
</clipPath>
</defs>
</svg>

<svg xmlns="http://www.w3.org/2000/svg" width="64" height="56" fill="currentColor" viewBox="0 0 64 56"><g clip-path="url(#clip0_601_50307)"><path d="M32.02 42.434c-7.929 0-14.424-6.527-14.424-14.455 0-1.783.319-3.47.924-5.062l8.437 16.97c.095.223.255.414.51.414.254 0 .413-.191.509-.414l3.884-8.692c.032-.096.096-.191.191-.191.096 0 .127.095.191.191l3.884 8.692c.096.223.255.414.51.414s.414-.191.51-.414l8.437-16.97a14.1 14.1 0 0 1 .923 5.062c-.064 7.928-6.559 14.455-14.487 14.455m0-17.734c-.096 0-.128-.096-.192-.191l-4.52-10.189a13.6 13.6 0 0 1 4.711-.827c1.656 0 3.248.286 4.712.827l-4.52 10.189c-.064.127-.096.19-.192.19m-4.617 10.475c-.096 0-.128-.096-.191-.191L19.889 20.21c1.305-2.006 3.056-3.694 5.19-4.872l5.285 11.749c.063.19.223.255.382.255h2.547c.19 0 .318-.032.414-.255l5.285-11.749a14.9 14.9 0 0 1 5.19 4.872l-7.387 14.773c-.032.095-.096.19-.191.19-.096 0-.127-.095-.191-.19l-2.77-6.304c-.096-.223-.223-.255-.414-.255h-2.547c-.191 0-.318.032-.414.255l-2.674 6.304c-.032.095-.096.19-.191.19m4.616 8.724c8.82 0 15.92-7.1 15.92-15.92s-7.1-15.92-15.92-15.92-15.92 7.1-15.92 15.92S23.2 43.9 32.02 43.9"/></g><defs><clipPath id="clip0_601_50307"><path fill="#fff" d="M16 12h32v32H16z"/></clipPath></defs></svg>
